X:1
T:James Gibb editions
T:O quam suavis - Vivanco
T:#
%%score [ 1 2 3 4 ]
L:1/8
Q:1/4=96
M:4/4
K:G
V:1 treble nm="Soprano" snm="S"
V:2 treble nm="Alto" snm="A"
V:3 treble-8 nm="Tenor" snm="T"
V:4 bass nm="Bass" snm="B"
V:1
"^Sebastián de Vivanco\n(1551-1622)""^O quam suavis" z8 | z8 | B4 B2 B2 | c4 B4- | B2 E2 G4 | %5
w: ||O quam su-|a- vis|* est, Do-|
 A4 B4 | z2 c2 (c3 B | A G A4) ^G2 | A2 e2 e2 e2 | =f4 e2 (AB | c d e3 d d2- | d2 c B A2) c2- | %12
w: mi- ne,|est, Do\- *|* * * mi-|ne, O quam su-|a- vis est, *||* * * * Do\-|
 c2 B2 c4 | z2 (e4 dc | d2) e4 c2- | c2 (B4 A2) | B4 z2 G2 | G2 G2 A2 A2 | B4 z2 B2 | B2 ^c2 d4 | %20
w: * mi- ne,|spi\- * *|* ri- tus|* tu\- *|us, qui|ut dul- ce- di-|nem qui|ut dul- ce-|
 B3 A G4 | F4 z2 B2 | B2 B2 e4 | d2 d2 (B3 A | G2 FE F2 ^G2) | A4 z2 B2 | B6 B2 | A4 G2 E2 | G8 | %29
w: di- nem tu-|am, qui|ut dul- ce-|di- nem tu\- *||am, in|fi- li-|os de- mon-|stra-|
 E2 c4 B2- | B2 (A4 ^G F | ^G4) A4- | A4 z4 | e8 | A4 c4 | B2 A4 (^G F | ^G4) A4 | c8 | B2 e4 d2 | %39
w: res, de- mon\-|* stra\- * *|* res,||pa-|ne su-|a- vis- si\- *|* mo|pa-|ne su- a-|
 c4 d4- | d4 G4- | G4 z2 c2 | c2 B4 (A2- | A2 ^G F G2) A2 | B4 z2 e2 | e2 d4 (c B | c4) B4 | %47
w: vis- si\-|* mo|* de|cae- lo prae\-|* * * * sti-|to, de|cae- lo prae\- *|* sti-|
 A4 z2 B2 | B2 A4 (G=F | G2 =F2 E4- | E4 z2 B2 | c8 | c4 d4 | c2 e3 d (c2- | c2 B2) c4 | %55
w: to, de|cae- lo prae\- *|* sti- to,|* e-|su-|ri- en-|tes re- ples bo\-|* * nis,|
 z2 c2 c2 c2 | e4 d2 e2- | e d c B A2) (^G2 | A4) ^G4 | z2 B2 B4 | G4 A2 (B2- | B2 A3 G G2- | %62
w: fa- sti- di-|o- sos di\-|* * * * * vi\-|* tes|di- mit-|tens i- na\-||
 G2 F2) E4 | z2 e2 e2 c2 |[Q:1/4=95] d2[Q:1/4=92] (d3[Q:1/4=90] c[Q:1/4=90]B[Q:1/4=89]A | %65
w: * * nes,|di- mit- tens|i- na\- * * *|
[Q:1/4=85] B8) |[Q:1/4=82] ^G16 |] %67
w: |nes.|
V:2
 z8 | z8 | z8 | z8 | z8 | z8 | E4 E2 E2 | =F4 E4- | E2 A,2 C4 | D4 E4 | z2 A2 A4 | A6 G2 | %12
w: ||||||O quam su-|a- vis|* est, Do-|mi- ne,|su- a-|vis est,|
 =F2 F2 E4 | G8- | G4 E2 A2 | (F2 G4 F E | F4) G4 | z2 E2 E2 F2 | (G3 F E2) D2 | G2 (E2 G2 FE) | %20
w: Do- mi- ne,|spi\-|* ri- tus|tu\- * * *|* us,|qui ut dul-|ce\- * * di-|nem tu\- * * *|
 F2 B,2 B,2 ^C2 | (D3 E F2) G2- | G2 F2 (E3 F | G2 FE FG F2- | FE E4 D2 | E3 F) G4- | G4 z4 | %27
w: am, qui ut dul-|ce\- * * di\-|* nem tu\- *|||* * am,||
 E4 E4- | E2 E2 D4 | C2 (A,B,CD) (E2- | E D D2) E4- | E4 z2 E2- | E2 A,2 C4 | B,2 (C3 D) E2 | %34
w: in fi\-|* li- os|de- mon\- * * * stra\-|* * * res,|* pa\-|* ne su-|a- vis\- * si-|
 D2 A4 G2 | =F2 F2 E4- | E8 | E4 z2 A2- | A2 ^G2 A4- | A2 G2 =F4 | =F4 E4 | z2 G2 G2 =F2 | %42
w: mo, su- a-|vis\-- si mo||* pa\-|* ne su\-|* a- vis-|si- mo|de cae- lo|
 E2 (G3 F E2) | E4 z2 E2 | E4 D2 (C2- | CB,/A,/) B,2 A,4 | z8 | z2 A2 A2 G2- | G2 (=F4 E D | %49
w: prae- sti\- * *|to, de|cae- lo prae\-|* * * sti- to,||de cae- lo|* prae\- * *|
 E2 (D3 C/ B,/ C2) | B,8 | z4 z2 E2 | G2 A4 ^G2 | A4 z2 A2- | AA G2 E4 | z2 G2 G2 G2 | G8 | %57
w: * sti\- * * *|to,|e-|su- ri- en-|tes re\-|* ples bo- nis,|fa- sti- di-|o-|
 E2 A, B, C D E2- | E2) D2 E4 | z2 G2 G4- | G2 E4 F2 | (G F E D E4- | E2 DC) B,2 G2 | G4 E4 | %64
w: sos dì\- * * * *|* vi- tes|di- mit\-|* tens i-|na\- * * * *|* * * nes, di-|mit- tens|
 G2 (F3 E E2- | E2 ^D^C D4) | E16 |] %67
w: i- na\- * *||nes.|
V:3
 B4 B2 B2 | c4 B4- | B2 E2 G4 | A4 B2 e2 | eB c2 B2 c2- | c2 (A4 G F | G2 A2 G4 | (d4 B4) | %8
w: O quam su-|a- vis|* est, Do-|mi- ne, O|quam su- a- vis est,|* Do\- * *|* mi- ne,|est, *|
 c3 B A B c2- | c2) B2 c2 e2 | e2 e2 =f4 | e2 A2 c4 | d4 G4 | z2 (c4 B A | B4 c4) | (d4 e4- | %16
w: Do\- * * * *|* mi- ne, O|quam su- a-|vis est, Do-|mi- ne,|spi\- * *||ri\- *|
 e2) ^d2 (e3 =d | c2 B2) c4 | z2 B2 B2 B2 | e4 d2 B2 | (d4 e4) | A2 (B4 G2- | G A B4 A2) | B8 | %24
w: * tus tu\- *|* * us,|qui ut dul-|ce- di- nem|tu\- *|am, tu\- *||am,|
 z8 | z2 e2 e4- | e2 e2 d4 | c2 (A B c B c2) | (B2 c4 B2) | c2 e4 e2 | (A3 B c2 BA | B4) A4 | %32
w: |in fi\-|* li- os|de- mon\- * * * *|stra\- * *|res, de- mon-|stra\- * * * *|* res,|
 z4 e4- | e4 A4 | =f6 e2 | d4 (c2 B A | B4-) A4 | z4 e4- | e4 A2 A2- | AB c4 (B A | B4) c2 e2 | %41
w: pa\-|* ne|su- a-|vis- si\- * *|* mo|pa\-|* ne su\-|* a- vis- si\- *|* mo de|
 e4 d2 (cB | c2) d2 e2 c2 | c2 B4 (A2- | A2 ^G F G2) (AB | c2 d2) e4 | z2 e2 e2 d2- | %47
w: cae- lo prae\- *|* sti- to, de|cae- lo prae\-|* * * * sti- *|* * to,|de cae- lo|
 d2 (cB cd e2- | edcB c2) (c2- | c B A G A4- | A2 ^GF) G4 | A8 | z8 | e3 d c2 e2 | d4 c4 | %55
w: * prae\- * * * *|* * * * * sti\-|||to,||re- ples bo- nis,|bo- nis,|
 z2 e2 e2 (e2- | e d c2) B4 | c6 (B2 | A3 B c2) (BA) | B4 z2 e2 | e4 c2 d2 | (ed c B/ A/ B4 | %62
w: fa- sti- di\-|* * * o-|sos di\-|* * * vi\- *|tes di-|mit- tens i-|na\- * * * * *|
 A4 G2) B2 | B4 G2 A2 | (B3 A G4 | F8) | E16 |] %67
w: * nes, di-|mit- tens i-|na\- * *||nes.|
V:4
 z8 | z8 | z8 | z8 | E,4 E,2 E,2 | =F,4 E,4- | E,2 A,,2 C,4 | (D,4 E,4) | A,,8 | z4 A,4 | %10
w: ||||O quam su-|a- vis|* est, Do-|mi\- *|ne,|O|
 A,2 A,2 D,4 | A,3 G, (=F,2 E,2) | D,4 C,4- | C,4 G,4- | G,4 A,4 | B,4 C4 | B,4 z2 E,2 | %17
w: quam su- a-|vis est, Do\- *|mi- ne,|* spi\-|* ri-|tus tu-|us, qui|
 E,2 E,2 A,4 | G,2 E,2 (G,4- | G,2 A,2) B,2 B,,2 | B,,2 B,,2 E,4 | D,2 B,,2 (D,2 E,2- | %22
w: ut dul- ce-|di- nem tu\-|* * am, qui|ut dul- ce-|di- nem tu\- *|
 E, D, B,,2 C,4) | B,,4 z2 B,2 | B,6 B,2 | A,4 G,2 (E,2- | E,F,G,A, B, A, G,2) | A,4 E,4- | %28
w: |am, in|fi- li-|os de- mon\-||stra- res,|
 E,4 G,4 | (A,6 G,2 | =F,4) E,4- | E,4 A,,4 | A,8 | E,4 z4 | z8 | z4 E,4- | E,4 A,,4 | A,8 | %38
w: * de-|mon\- *|* stra\-|* res,|pa-|ne,||pa\-|* ne,|pa-|
 E,4 =F,4- | F,2 E,2 D,4 | D,4 C,2 C2 | C4 B,2 (A,2- | A,2 G, F, G,2) A,2 | E,8- | E,4 z4 | %45
w: ne su\-|* a- vis-|si- mo de|cae- lo prae\-|* * * * sti-|to,||
 z4 z2 A,2 | A,4 G,4 | (=F,6 E, D, | E,2) =F,2 C,2 (C,2- | C,2 D,2) A,,4 | E,8 | z2 A,2 C4- | %52
w: de|cae- lo|prae\- * *|* sti- to, prae\-|* * sti-|to,|e- su\-|
 C2 A,2 B,4 | A,4 A,3 G, | (=F,2 G,2) C,2 C2 | C2 C2 C,4- | C,4 G,4 | (A,6 E,2) | =F,4 E,4- | %59
w: * ri- en-|tes re- ples|bo\- * nis, fa-|sti- di- o\-|* sos|di\- *|vi- tes|
 E,4 z4 | z8 | E,4 E,4 | C,2 D,2 (E,3 D, | E, D, C, B,, C,4 | B,,8- | B,,8) | E,16 |] %67
w: ||di- mit-|tens i- na\- *||||nes.|

